X:257
T:Lord of Life, All Praise Excelling
%%stretchlast false
M:3/4
L:1/4
K:Eb clef=C1
"^I"[E,,G,B,E] "^I¹"[G,,G,B,E] "^V"[B,,F,DF] | "^I"[E,G,E]3/2 "^i"[E,A,EF]/ "^I"[E,B,EG] | "^ii7³"[E,CFA] "^V7¹"[D,B,FA] "^I"[E,B,EG] | "^V"[B,,B,DF] "^vi"[C,G,CE] "^V"[B,,B,DF] | "^I¹"[G,B,EB] "^iii"[G,B,B] "^ii"[F,B,CA]/ "^V7²"[F,B,DA]/ | "^I"[E,B,EG]2 "^I¹"[G,,B,EG]/ "^iii"[G,,B,DG]/ | "^ii¹"[A,,A,CF] "^vi"[C,G,CE] "^V"[B,,B,DF] | "^I"[E,G,E]3 | [E,,G,B,E] "^I¹"[G,,G,B,E] "^V"[B,,F,DF] | "^I"[E,G,E]3/2 "^i"[E,A,EF]/ "^I"[E,B,EG] | "^ii7³"[E,CFA] "^V7¹"[D,B,FA] "^I"[E,B,EG] | "^V"[B,,B,DF] "^vi"[C,G,CE] "^V"[B,,B,DF] | "^I¹"[G,B,EB] "^iii"[G,B,B] "^ii"[F,B,CA]/ "^V7²"[F,B,DA]/ | "^I"[E,B,EG]2 "^I¹"[G,,B,EG]/ "^iii"[G,,B,DG]/ | "^ii¹"[A,,A,CF] "^vi"[C,G,CE] "^V"[B,,B,DF] | "^I"[E,G,E]3 | "^iii"[G,B,DB]2 [G,B,DB] | "^vi7"[C,E,EB] "^ii7²"[C,F,EA] "^vi"[C,G,EG] | "^i"[F,EA] "^vii°¹"[F,DA] "^ii"[F,CA] | "^V7"[B,,F,DA] "^vi7"[C,B,EG] "^V7¹"[D,A,B,F] | "^I"[E,G,B,G]2 "^Imaj7³"[D,B,EG] | "^vi"[C,CEG] "^ii²"[C,CFA] "^iii"[G,,B,GB] | [F,,CGB] "^ii"[F,,CFA] "^IVmaj7"[A,,CEG] | "^i"[B,,F,EF]2 "^V"[B,,F,DF] | "^I¹"[G,B,EB] [G,B,EG] "^vi7¹"[E,CGB] | "^ii7³"[E,CFA] "^vii7"[D,CF]/ "^ii"[C,CF]/ "^V7¹"[D,B,FA] | "^I"[E,B,EG] "^Imaj7³"[D,G,B,E] "^vi"[C,=A,EG] | "^V¹"[D,B,F]/ "^iii¹"[B,,B,DG]/ "^IV¹"[C,A,EA]/ "^IVmaj7¹"[C,A,EG]/ "^V7¹"[D,A,B,F] | "^I"[E,G,B,B] [E,G,EB] [G,,B,_DB] | "^vi+"[A,,A,Cc] "^I¹"[G,,B,EB] "^IV"[A,,CEA] | "^I²"[B,,B,EG]2 "^V7"[B,,A,DF] | "^I"[E,,G,E]3 |]
